Newaita-dark/apps/48/git.svg

<svg height="48" viewBox="0 0 48 48" width="48" xmlns="http://www.w3.org/2000/svg" xmlns:xlink="http://www.w3.org/1999/xlink"><linearGradient id="a"><stop offset="0" stop-opacity=".313726"/><stop offset=".222222" stop-opacity=".27451"/><stop offset="1" stop-opacity="0"/></linearGradient><radialGradient id="b" cx="450.908936" cy="189.579361" gradientTransform="matrix(.00000026 -.117199 -.210958 -.00000015 63.311737 95.392999)" gradientUnits="userSpaceOnUse" r="21.166656" xlink:href="#a"/><radialGradient id="c" cx="450.908936" cy="189.579361" gradientTransform="matrix(-.00000026 .117199 .210958 .00000015 -15.682186 -11.291218)" gradientUnits="userSpaceOnUse" r="21.166656" xlink:href="#a"/><radialGradient id="d" cx="450.908936" cy="189.579361" gradientTransform="matrix(-.00000026 -.117199 .210958 -.00000015 -15.682186 95.392999)" gradientUnits="userSpaceOnUse" r="21.166656" xlink:href="#a"/><radialGradient id="e" cx="450.908936" cy="189.579361" gradientTransform="matrix(.00000026 .117199 -.210958 .00000015 63.311734 -11.291219)" gradientUnits="userSpaceOnUse" r="21.166656" xlink:href="#a"/><linearGradient id="f" gradientTransform="matrix(.0662976 -.0662976 .0662976 .0662976 5.52769 38.519098)" gradientUnits="userSpaceOnUse" x1="111.280739" x2="395.655518" y1="164.552521" y2="-119.822243"><stop offset="0" stop-color="#e53935"/><stop offset="1" stop-color="#f44336"/></linearGradient><linearGradient id="g" gradientTransform="matrix(.0662976 -.0662976 .0662976 .0662976 4.465605 30.232569)" gradientUnits="userSpaceOnUse" x1="109.180611" x2="281.302185" y1="182.672668" y2="10.551097"><stop offset="0" stop-color="#e0e0e0"/><stop offset="1" stop-color="#eee"/></linearGradient><path d="m23.816406 42.050781h3.96875v-1.984375h-3.96875zm0 0" fill="url(#b)"/><path d="m23.816406 42.050781h-3.972656v1.984375h3.972656zm0 0" fill="url(#c)"/><path d="m23.816406 42.050781h-3.972656v-1.984375h3.972656zm0 0" fill="url(#d)"/><path d="m23.816406 42.050781h3.96875v1.984375h-3.96875zm0 0" fill="url(#e)"/><path d="m5.570312 21.722656 16.839844-16.839844c.777344-.773437 2.03125-.773437 2.808594 0l16.839844 16.839844c.773437.777344.773437 2.03125 0 2.808594l-16.839844 16.839844c-.777344.773437-2.03125.773437-2.808594 0l-16.839844-16.839844c-.773437-.777344-.773437-2.03125 0-2.808594zm0 0" fill="url(#f)"/><path d="m25.910156 13.789062c-.9375-.941406-2.335937-1.121093-3.457031-.550781l-.101563-.101562c-.386718-.390625-1.015624-.390625-1.402343 0-.390625.386719-.390625 1.015625 0 1.402343l.136719.136719c-.492188 1.09375-.285157 2.421875.613281 3.320313.328125.332031.714843.566406 1.125.710937v9.84375c-.429688.140625-.832031.382813-1.175781.722657-1.164063 1.167968-1.164063 3.042968 0 4.210937 1.167968 1.164063 3.046874 1.164063 4.210937 0 1.167969-1.167969 1.167969-3.042969 0-4.210937-.308594-.308594-.667969-.535157-1.050781-.679688v-9.894531c.070312-.027344.140625-.054688.210937-.085938l3.785157 3.78125c-.492188 1.09375-.289063 2.421875.613281 3.320313 1.167969 1.167968 3.042969 1.167968 4.210937 0 1.164063-1.164063 1.164063-3.042969 0-4.207032-.9375-.941406-2.339844-1.125-3.457031-.550781l-3.710937-3.714843c.570312-1.117188.386718-2.515626-.550782-3.453126zm0 0" fill="url(#g)"/><path d="m20.703125 14.140625c-.105469.332031-.03125.707031.226563.980469.039062-.152344.089843-.300782.15625-.445313l-.136719-.136719c-.117188-.117187-.199219-.253906-.246094-.398437zm6.066406 2.050781c-.039062.363282-.140625.71875-.308593 1.050782l.175781.179687c.128906-.398437.175781-.816406.132812-1.230469zm-5.929687.003906c-.085938.859376.199218 1.746094.859375 2.40625.328125.328126.714843.5625 1.125.707032v-.601563c-.410157-.144531-.796875-.378906-1.125-.710937-.503907-.503906-.789063-1.144532-.859375-1.800782zm4.179687 2.417969c-.070312.03125-.140625.058594-.210937.085938v.601562c.070312-.027343.140625-.054687.210937-.085937l3.625 3.625c.042969-.152344.09375-.300782.160157-.445313zm9.46875 5.296875c-.066406.660156-.355469 1.300782-.859375 1.804688-1.167968 1.167968-3.042968 1.167968-4.210937 0-.503907-.503906-.792969-1.144532-.859375-1.800782-.085938.855469.199218 1.746094.859375 2.402344 1.167969 1.167969 3.042969 1.167969 4.210937 0 .660156-.660156.945313-1.546875.859375-2.40625zm-13.695312 7.769532c-.089844.859374.199219 1.746093.855469 2.40625 1.167968 1.164062 3.046874 1.164062 4.210937 0 .660156-.660157.945313-1.546876.859375-2.40625-.066406.65625-.351562 1.296874-.859375 1.804687-1.164063 1.164063-3.042969 1.164063-4.210937 0-.503907-.507813-.789063-1.148437-.855469-1.804687zm0 0" fill-opacity=".235294"/><path d="m21.648438 12.84375c-.25 0-.503907.097656-.699219.292969-.261719.261719-.347657.632812-.253907.96875.042969-.160157.128907-.3125.253907-.4375.386719-.386719 1.015625-.386719 1.402343 0l.101563.101562c1.121094-.570312 2.519531-.386719 3.457031.550781.515625.515626.800782 1.167969.863282 1.839844.074218-.847656-.210938-1.722656-.863282-2.371094-.9375-.9375-2.335937-1.121093-3.457031-.550781l-.101563-.101562c-.195312-.195313-.449218-.292969-.703124-.292969zm-.703126 2.222656c-.105468.355469-.140624.726563-.105468 1.09375.027344-.328125.109375-.648437.246094-.949218l-.136719-.140626c-.003907 0-.003907-.003906-.003907-.003906zm5.671876 2.335938c-.042969.128906-.09375.253906-.15625.375l3.710937 3.710937c1.117187-.570312 2.519531-.386719 3.457031.550781.515625.515626.800782 1.167969.863282 1.839844.074218-.847656-.210938-1.722656-.863282-2.371094-.9375-.941406-2.339844-1.125-3.457031-.550781zm2.042968 5.382812c-.101562.355469-.136718.726563-.105468 1.089844.03125-.324219.113281-.644531.25-.949219zm-5.835937 5.765625c-.429688.140625-.832031.382813-1.175781.722657-.648438.652343-.9375 1.523437-.859376 2.371093.058594-.667969.347657-1.324219.859376-1.839843.34375-.339844.746093-.582032 1.175781-.722657zm1.984375.042969v.53125c.382812.144531.742187.371094 1.050781.679688.515625.515624.804687 1.171874.863281 1.839843.078125-.847656-.210937-1.71875-.863281-2.371093-.308594-.308594-.667969-.535157-1.050781-.679688zm0 0" fill="#fff"/><path d="m23.816406 4.300781c-.507812 0-1.015625.195313-1.40625.582031l-16.839844 16.839844c-.464843.46875-.652343 1.109375-.558593 1.710938.0625-.398438.25-.785156.558593-1.09375l16.839844-16.839844c.777344-.777344 2.03125-.777344 2.808594 0l16.839844 16.839844c.308594.308594.496094.695312.558594 1.09375.09375-.601563-.09375-1.242188-.558594-1.710938l-16.839844-16.839844c-.390625-.386718-.898438-.582031-1.402344-.582031zm0 0" fill="#fff" fill-opacity=".392157"/><path d="m23.816406 41.953125c-.507812 0-1.015625-.195313-1.40625-.585937l-16.839844-16.839844c-.464843-.464844-.652343-1.105469-.558593-1.710938.0625.402344.25.789063.558593 1.097656l16.839844 16.839844c.777344.777344 2.03125.777344 2.808594 0l16.839844-16.839844c.308594-.308593.496094-.695312.558594-1.097656.09375.605469-.09375 1.246094-.558594 1.710938l-16.839844 16.839844c-.390625.390624-.898438.585937-1.402344.585937zm0 0" fill-opacity=".235294"/><path d="m5.472656 21.625c-.832031.828125-.832031 2.175781 0 3.003906l16.839844 16.839844c.832031.832031 2.175781.832031 3.003906 0l16.839844-16.839844c.832031-.828125.832031-2.171875 0-3.003906l-16.839844-16.839844c-.828125-.832031-2.171875-.832031-3.003906 0zm.199219.199219 16.839844-16.839844c.722656-.726563 1.882812-.726563 2.605469 0l16.839843 16.839844c.726563.722656.726563 1.882812 0 2.605469l-16.839843 16.839843c-.722657.726563-1.882813.726563-2.605469 0l-16.839844-16.839843c-.722656-.722657-.726563-1.882813 0-2.605469zm0 0" fill="#212121"/><path d="m276.34861-67.930711c-9.999045-10.040708-24.914287-11.957192-36.871479-5.874439l-1.08323-1.08323c-4.124606-4.166269-10.832299-4.166269-14.956905 0-4.166269 4.124606-4.166269 10.832299 0 14.956905l1.458194 1.458194c-5.249498 11.665553-3.041376 25.830867 6.541042 35.413285 3.499666 3.541328 7.624272 6.04109 11.998854 7.582609v104.989974c-4.582895 1.499857-8.874152 4.082944-12.540469 7.707597-12.415481 12.457144-12.415481 32.455234 0 44.912378 12.457144 12.415481 32.496897 12.415481 44.912378 0 12.457144-12.457144 12.457144-32.455234 0-44.912378-3.291352-3.291352-7.12432-5.707788-11.207263-7.249307v-105.531589c.749928-.291639 1.499857-.583278 2.249785-.916579l40.371145 40.329482c-5.249499 11.665552-3.083039 25.830866 6.541042 35.413285 12.457144 12.457143 32.455234 12.457143 44.912378 0 12.415481-12.415481 12.415481-32.455234 0-44.870715-9.999045-10.040708-24.95595-11.998855-36.871479-5.874439l-39.579554-39.621217c6.082753-11.915529 4.124606-26.830771-5.874439-36.829816zm0 0" fill="none" stroke="#212121" stroke-linecap="round" stroke-width="3" transform="matrix(.093759 0 0 .093759 0 20.158175)"/></svg>

<?xml version="1.0" encoding="UTF-8"?>
<svg xmlns="http://www.w3.org/2000/svg" xmlns:xlink="http://www.w3.org/1999/xlink" width="48px" height="48px" viewBox="0 0 48 48" version="1.1">
<defs>
<radialGradient id="radial0" gradientUnits="userSpaceOnUse" cx="450.908936" cy="189.579361" fx="450.908936" fy="189.579361" r="21.166656" gradientTransform="matrix(0.000000261256,-0.117199,-0.210958,-0.000000152308,63.311737,95.392999)">
<stop offset="0" style="stop-color:rgb(0%,0%,0%);stop-opacity:0.313726;"/>
<stop offset="0.222222" style="stop-color:rgb(0%,0%,0%);stop-opacity:0.27451;"/>
<stop offset="1" style="stop-color:rgb(0%,0%,0%);stop-opacity:0;"/>
</radialGradient>
<radialGradient id="radial1" gradientUnits="userSpaceOnUse" cx="450.908936" cy="189.579361" fx="450.908936" fy="189.579361" r="21.166656" gradientTransform="matrix(-0.000000261256,0.117199,0.210958,0.000000152308,-15.682186,-11.291218)">
<stop offset="0" style="stop-color:rgb(0%,0%,0%);stop-opacity:0.313726;"/>
<stop offset="0.222222" style="stop-color:rgb(0%,0%,0%);stop-opacity:0.27451;"/>
<stop offset="1" style="stop-color:rgb(0%,0%,0%);stop-opacity:0;"/>
</radialGradient>
<radialGradient id="radial2" gradientUnits="userSpaceOnUse" cx="450.908936" cy="189.579361" fx="450.908936" fy="189.579361" r="21.166656" gradientTransform="matrix(-0.000000261256,-0.117199,0.210958,-0.000000152308,-15.682186,95.392999)">
<stop offset="0" style="stop-color:rgb(0%,0%,0%);stop-opacity:0.313726;"/>
<stop offset="0.222222" style="stop-color:rgb(0%,0%,0%);stop-opacity:0.27451;"/>
<stop offset="1" style="stop-color:rgb(0%,0%,0%);stop-opacity:0;"/>
</radialGradient>
<radialGradient id="radial3" gradientUnits="userSpaceOnUse" cx="450.908936" cy="189.579361" fx="450.908936" fy="189.579361" r="21.166656" gradientTransform="matrix(0.000000261256,0.117199,-0.210958,0.000000152308,63.311734,-11.291219)">
<stop offset="0" style="stop-color:rgb(0%,0%,0%);stop-opacity:0.313726;"/>
<stop offset="0.222222" style="stop-color:rgb(0%,0%,0%);stop-opacity:0.27451;"/>
<stop offset="1" style="stop-color:rgb(0%,0%,0%);stop-opacity:0;"/>
</radialGradient>
<linearGradient id="linear0" gradientUnits="userSpaceOnUse" x1="111.280739" y1="164.552521" x2="395.655518" y2="-119.822243" gradientTransform="matrix(0.0662976,-0.0662976,0.0662976,0.0662976,5.52769,38.519098)">
<stop offset="0" style="stop-color:rgb(89.803922%,22.352941%,20.784314%);stop-opacity:1;"/>
<stop offset="1" style="stop-color:rgb(95.686275%,26.274511%,21.176471%);stop-opacity:1;"/>
</linearGradient>
<linearGradient id="linear1" gradientUnits="userSpaceOnUse" x1="109.180611" y1="182.672668" x2="281.302185" y2="10.551097" gradientTransform="matrix(0.0662976,-0.0662976,0.0662976,0.0662976,4.465605,30.232569)">
<stop offset="0" style="stop-color:rgb(87.843138%,87.843138%,87.843138%);stop-opacity:1;"/>
<stop offset="1" style="stop-color:rgb(93.333334%,93.333334%,93.333334%);stop-opacity:1;"/>
</linearGradient>
</defs>
<g id="surface1">
<path style=" stroke:none;fill-rule:nonzero;fill:url(#radial0);" d="M 23.816406 42.050781 L 27.785156 42.050781 L 27.785156 40.066406 L 23.816406 40.066406 Z M 23.816406 42.050781 "/>
<path style=" stroke:none;fill-rule:nonzero;fill:url(#radial1);" d="M 23.816406 42.050781 L 19.84375 42.050781 L 19.84375 44.035156 L 23.816406 44.035156 Z M 23.816406 42.050781 "/>
<path style=" stroke:none;fill-rule:nonzero;fill:url(#radial2);" d="M 23.816406 42.050781 L 19.84375 42.050781 L 19.84375 40.066406 L 23.816406 40.066406 Z M 23.816406 42.050781 "/>
<path style=" stroke:none;fill-rule:nonzero;fill:url(#radial3);" d="M 23.816406 42.050781 L 27.785156 42.050781 L 27.785156 44.035156 L 23.816406 44.035156 Z M 23.816406 42.050781 "/>
<path style=" stroke:none;fill-rule:nonzero;fill:url(#linear0);" d="M 5.570312 21.722656 L 22.410156 4.882812 C 23.1875 4.109375 24.441406 4.109375 25.21875 4.882812 L 42.058594 21.722656 C 42.832031 22.5 42.832031 23.753906 42.058594 24.53125 L 25.21875 41.371094 C 24.441406 42.144531 23.1875 42.144531 22.410156 41.371094 L 5.570312 24.53125 C 4.796875 23.753906 4.796875 22.5 5.570312 21.722656 Z M 5.570312 21.722656 "/>
<path style=" stroke:none;fill-rule:nonzero;fill:url(#linear1);" d="M 25.910156 13.789062 C 24.972656 12.847656 23.574219 12.667969 22.453125 13.238281 L 22.351562 13.136719 C 21.964844 12.746094 21.335938 12.746094 20.949219 13.136719 C 20.558594 13.523438 20.558594 14.152344 20.949219 14.539062 L 21.085938 14.675781 C 20.59375 15.769531 20.800781 17.097656 21.699219 17.996094 C 22.027344 18.328125 22.414062 18.5625 22.824219 18.707031 L 22.824219 28.550781 C 22.394531 28.691406 21.992188 28.933594 21.648438 29.273438 C 20.484375 30.441406 20.484375 32.316406 21.648438 33.484375 C 22.816406 34.648438 24.695312 34.648438 25.859375 33.484375 C 27.027344 32.316406 27.027344 30.441406 25.859375 29.273438 C 25.550781 28.964844 25.191406 28.738281 24.808594 28.59375 L 24.808594 18.699219 C 24.878906 18.671875 24.949219 18.644531 25.019531 18.613281 L 28.804688 22.394531 C 28.3125 23.488281 28.515625 24.816406 29.417969 25.714844 C 30.585938 26.882812 32.460938 26.882812 33.628906 25.714844 C 34.792969 24.550781 34.792969 22.671875 33.628906 21.507812 C 32.691406 20.566406 31.289062 20.382812 30.171875 20.957031 L 26.460938 17.242188 C 27.03125 16.125 26.847656 14.726562 25.910156 13.789062 Z M 25.910156 13.789062 "/>
<path style=" stroke:none;fill-rule:nonzero;fill:rgb(0%,0%,0%);fill-opacity:0.235294;" d="M 20.703125 14.140625 C 20.597656 14.472656 20.671875 14.847656 20.929688 15.121094 C 20.96875 14.96875 21.019531 14.820312 21.085938 14.675781 L 20.949219 14.539062 C 20.832031 14.421875 20.75 14.285156 20.703125 14.140625 Z M 26.769531 16.191406 C 26.730469 16.554688 26.628906 16.910156 26.460938 17.242188 L 26.636719 17.421875 C 26.765625 17.023438 26.8125 16.605469 26.769531 16.191406 Z M 20.839844 16.195312 C 20.753906 17.054688 21.039062 17.941406 21.699219 18.601562 C 22.027344 18.929688 22.414062 19.164062 22.824219 19.308594 L 22.824219 18.707031 C 22.414062 18.5625 22.027344 18.328125 21.699219 17.996094 C 21.195312 17.492188 20.910156 16.851562 20.839844 16.195312 Z M 25.019531 18.613281 C 24.949219 18.644531 24.878906 18.671875 24.808594 18.699219 L 24.808594 19.300781 C 24.878906 19.273438 24.949219 19.246094 25.019531 19.214844 L 28.644531 22.839844 C 28.6875 22.6875 28.738281 22.539062 28.804688 22.394531 Z M 34.488281 23.910156 C 34.421875 24.570312 34.132812 25.210938 33.628906 25.714844 C 32.460938 26.882812 30.585938 26.882812 29.417969 25.714844 C 28.914062 25.210938 28.625 24.570312 28.558594 23.914062 C 28.472656 24.769531 28.757812 25.660156 29.417969 26.316406 C 30.585938 27.484375 32.460938 27.484375 33.628906 26.316406 C 34.289062 25.65625 34.574219 24.769531 34.488281 23.910156 Z M 20.792969 31.679688 C 20.703125 32.539062 20.992188 33.425781 21.648438 34.085938 C 22.816406 35.25 24.695312 35.25 25.859375 34.085938 C 26.519531 33.425781 26.804688 32.539062 26.71875 31.679688 C 26.652344 32.335938 26.367188 32.976562 25.859375 33.484375 C 24.695312 34.648438 22.816406 34.648438 21.648438 33.484375 C 21.144531 32.976562 20.859375 32.335938 20.792969 31.679688 Z M 20.792969 31.679688 "/>
<path style=" stroke:none;fill-rule:nonzero;fill:rgb(100%,100%,100%);fill-opacity:1;" d="M 21.648438 12.84375 C 21.398438 12.84375 21.144531 12.941406 20.949219 13.136719 C 20.6875 13.398438 20.601562 13.769531 20.695312 14.105469 C 20.738281 13.945312 20.824219 13.792969 20.949219 13.667969 C 21.335938 13.28125 21.964844 13.28125 22.351562 13.667969 L 22.453125 13.769531 C 23.574219 13.199219 24.972656 13.382812 25.910156 14.320312 C 26.425781 14.835938 26.710938 15.488281 26.773438 16.160156 C 26.847656 15.3125 26.5625 14.4375 25.910156 13.789062 C 24.972656 12.851562 23.574219 12.667969 22.453125 13.238281 L 22.351562 13.136719 C 22.15625 12.941406 21.902344 12.84375 21.648438 12.84375 Z M 20.945312 15.066406 C 20.839844 15.421875 20.804688 15.792969 20.839844 16.160156 C 20.867188 15.832031 20.949219 15.511719 21.085938 15.210938 L 20.949219 15.070312 C 20.945312 15.070312 20.945312 15.066406 20.945312 15.066406 Z M 26.617188 17.402344 C 26.574219 17.53125 26.523438 17.65625 26.460938 17.777344 L 30.171875 21.488281 C 31.289062 20.917969 32.691406 21.101562 33.628906 22.039062 C 34.144531 22.554688 34.429688 23.207031 34.492188 23.878906 C 34.566406 23.03125 34.28125 22.15625 33.628906 21.507812 C 32.691406 20.566406 31.289062 20.382812 30.171875 20.957031 Z M 28.660156 22.785156 C 28.558594 23.140625 28.523438 23.511719 28.554688 23.875 C 28.585938 23.550781 28.667969 23.230469 28.804688 22.925781 Z M 22.824219 28.550781 C 22.394531 28.691406 21.992188 28.933594 21.648438 29.273438 C 21 29.925781 20.710938 30.796875 20.789062 31.644531 C 20.847656 30.976562 21.136719 30.320312 21.648438 29.804688 C 21.992188 29.464844 22.394531 29.222656 22.824219 29.082031 Z M 24.808594 28.59375 L 24.808594 29.125 C 25.191406 29.269531 25.550781 29.496094 25.859375 29.804688 C 26.375 30.320312 26.664062 30.976562 26.722656 31.644531 C 26.800781 30.796875 26.511719 29.925781 25.859375 29.273438 C 25.550781 28.964844 25.191406 28.738281 24.808594 28.59375 Z M 24.808594 28.59375 "/>
<path style=" stroke:none;fill-rule:nonzero;fill:rgb(100%,100%,100%);fill-opacity:0.392157;" d="M 23.816406 4.300781 C 23.308594 4.300781 22.800781 4.496094 22.410156 4.882812 L 5.570312 21.722656 C 5.105469 22.191406 4.917969 22.832031 5.011719 23.433594 C 5.074219 23.035156 5.261719 22.648438 5.570312 22.339844 L 22.410156 5.5 C 23.1875 4.722656 24.441406 4.722656 25.21875 5.5 L 42.058594 22.339844 C 42.367188 22.648438 42.554688 23.035156 42.617188 23.433594 C 42.710938 22.832031 42.523438 22.191406 42.058594 21.722656 L 25.21875 4.882812 C 24.828125 4.496094 24.320312 4.300781 23.816406 4.300781 Z M 23.816406 4.300781 "/>
<path style=" stroke:none;fill-rule:nonzero;fill:rgb(0%,0%,0%);fill-opacity:0.235294;" d="M 23.816406 41.953125 C 23.308594 41.953125 22.800781 41.757812 22.410156 41.367188 L 5.570312 24.527344 C 5.105469 24.0625 4.917969 23.421875 5.011719 22.816406 C 5.074219 23.21875 5.261719 23.605469 5.570312 23.914062 L 22.410156 40.753906 C 23.1875 41.53125 24.441406 41.53125 25.21875 40.753906 L 42.058594 23.914062 C 42.367188 23.605469 42.554688 23.21875 42.617188 22.816406 C 42.710938 23.421875 42.523438 24.0625 42.058594 24.527344 L 25.21875 41.367188 C 24.828125 41.757812 24.320312 41.953125 23.816406 41.953125 Z M 23.816406 41.953125 "/>
<path style=" stroke:none;fill-rule:nonzero;fill:rgb(12.941177%,12.941177%,12.941177%);fill-opacity:1;" d="M 5.472656 21.625 C 4.640625 22.453125 4.640625 23.800781 5.472656 24.628906 L 22.3125 41.46875 C 23.144531 42.300781 24.488281 42.300781 25.316406 41.46875 L 42.15625 24.628906 C 42.988281 23.800781 42.988281 22.457031 42.15625 21.625 L 25.316406 4.785156 C 24.488281 3.953125 23.144531 3.953125 22.3125 4.785156 Z M 5.671875 21.824219 L 22.511719 4.984375 C 23.234375 4.257812 24.394531 4.257812 25.117188 4.984375 L 41.957031 21.824219 C 42.683594 22.546875 42.683594 23.707031 41.957031 24.429688 L 25.117188 41.269531 C 24.394531 41.996094 23.234375 41.996094 22.511719 41.269531 L 5.671875 24.429688 C 4.949219 23.707031 4.945312 22.546875 5.671875 21.824219 Z M 5.671875 21.824219 "/>
<path style="fill:none;stroke-width:3;stroke-linecap:round;stroke-linejoin:miter;stroke:rgb(12.941177%,12.941177%,12.941177%);stroke-opacity:1;stroke-miterlimit:4;" d="M 276.34861 -67.930711 C 266.349565 -77.971419 251.434323 -79.887903 239.477131 -73.80515 L 238.393901 -74.88838 C 234.269295 -79.054649 227.561602 -79.054649 223.436996 -74.88838 C 219.270727 -70.763774 219.270727 -64.056081 223.436996 -59.931475 L 224.89519 -58.473281 C 219.645692 -46.807728 221.853814 -32.642414 231.436232 -23.059996 C 234.935898 -19.518668 239.060504 -17.018906 243.435086 -15.477387 L 243.435086 89.512587 C 238.852191 91.012444 234.560934 93.595531 230.894617 97.220184 C 218.479136 109.677328 218.479136 129.675418 230.894617 142.132562 C 243.351761 154.548043 263.391514 154.548043 275.806995 142.132562 C 288.264139 129.675418 288.264139 109.677328 275.806995 97.220184 C 272.515643 93.928832 268.682675 91.512396 264.599732 89.970877 L 264.599732 -15.560712 C 265.34966 -15.852351 266.099589 -16.14399 266.849517 -16.477291 L 307.220662 23.852191 C 301.971163 35.517743 304.137623 49.683057 313.761704 59.265476 C 326.218848 71.722619 346.216938 71.722619 358.674082 59.265476 C 371.089563 46.849995 371.089563 26.810242 358.674082 14.394761 C 348.675037 4.354053 333.718132 2.395906 321.802603 8.520322 L 282.223049 -31.100895 C 288.305802 -43.016424 286.347655 -57.931666 276.34861 -67.930711 Z M 276.34861 -67.930711 " transform="matrix(0.093759,0,0,0.093759,0,20.158175)"/>
</g>
</svg>
